client/assets/images/customer-home/illustration--secondary-gutenberg.svg

<svg width="200" height="165" viewBox="0 0 200 165" fill="none" xmlns="http://www.w3.org/2000/svg">
<mask id="mask0" mask-type="alpha" maskUnits="userSpaceOnUse" x="94" y="0" width="14" height="14">
<path d="M101 1.66702C102.414 1.66887 103.769 2.23133 104.769 3.23106C105.769 4.2308 106.331 5.58619 106.333 7.00002C106.331 8.41385 105.769 9.76924 104.769 10.769C103.769 11.7687 102.414 12.3312 101 12.333C99.5862 12.3312 98.2308 11.7687 97.231 10.769C96.2313 9.76924 95.6688 8.41385 95.667 7.00002C95.6688 5.58619 96.2313 4.2308 97.231 3.23106C98.2308 2.23133 99.5862 1.66887 101 1.66702V1.66702ZM101 0.33302C100.118 0.322213 99.242 0.486665 98.4237 0.81684C97.6054 1.14701 96.8608 1.63634 96.233 2.25646C95.6053 2.87657 95.1069 3.61513 94.7667 4.42932C94.4265 5.24351 94.2513 6.11713 94.2513 6.99952C94.2513 7.88191 94.4265 8.75553 94.7667 9.56972C95.1069 10.3839 95.6053 11.1225 96.233 11.7426C96.8608 12.3627 97.6054 12.852 98.4237 13.1822C99.242 13.5124 100.118 13.6768 101 13.666C102.754 13.6445 104.429 12.9327 105.661 11.6848C106.894 10.437 107.585 8.75357 107.585 6.99952C107.585 5.24546 106.894 3.56207 105.661 2.3142C104.429 1.06632 102.754 0.354501 101 0.33302V0.33302ZM104.333 6.33302H101.667V3.66702H100.333V6.33302H97.667V7.66702H100.333V10.333H101.667V7.66702H104.333V6.33302Z" fill="white"/>
</mask>
<g mask="url(#mask0)">
<path fill-rule="evenodd" clip-rule="evenodd" d="M93 -1H109V15H93V-1Z" fill="#1D2327"/>
</g>
<path fill-rule="evenodd" clip-rule="evenodd" d="M101.027 19.0001L96.4524 22.8429H4.82873C3.81329 22.8429 2.83943 23.1817 2.12141 23.7849C1.40338 24.388 1 25.206 1 26.059V160.784C1 161.637 1.40338 162.455 2.12141 163.058C2.83943 163.661 3.81329 164 4.82873 164H195.171C196.187 164 197.161 163.661 197.879 163.058C198.597 162.455 199 161.637 199 160.784V26.059C199 25.206 198.597 24.388 197.879 23.7849C197.161 23.1817 196.187 22.8429 195.171 22.8429H105.601L101.028 19.0001H101.027Z" fill="white" stroke="#C3C4C7"/>
<path d="M185.605 32.0001H16.3951C13.9677 32.0001 12 33.791 12 36.0001V45.0001C12 47.2093 13.9677 49.0001 16.3951 49.0001H185.605C188.032 49.0001 190 47.2093 190 45.0001V36.0001C190 33.791 188.032 32.0001 185.605 32.0001Z" stroke="#1689db" stroke-width="2"/>
<path fill-rule="evenodd" clip-rule="evenodd" d="M12 57.0001H191V58.0001H12V57.0001Z" fill="#C3C4C7"/>
<path fill-rule="evenodd" clip-rule="evenodd" d="M17 37.0001H62V45.0001H17V37.0001ZM31 93.0001H56V101H31V93.0001ZM87 93.0001H112V101H87V93.0001ZM145 93.0001H170V101H145V93.0001Z" fill="#F6F7F7"/>
<path d="M45.125 76.7501V81.1251H43.875V76.7501H43.25V76.7361C42.7749 76.7784 42.2961 76.7212 41.8443 76.5684C41.3924 76.4155 40.9773 76.1703 40.6254 75.8483C40.2735 75.5262 39.9925 75.1345 39.8002 74.698C39.608 74.2614 39.5087 73.7896 39.5087 73.3126C39.5087 72.8356 39.608 72.3638 39.8002 71.9273C39.9925 71.4907 40.2735 71.099 40.6254 70.777C40.9773 70.455 41.3924 70.2097 41.8443 70.0569C42.2961 69.904 42.7749 69.8469 43.25 69.8891V69.8751H48.875V71.1251H47.625V81.1251H46.375V71.1251H45.125V76.7501Z" fill="#50575E"/>
<path fill-rule="evenodd" clip-rule="evenodd" d="M31 142H56V150H31V142ZM87 142H112V150H87V142ZM145 142H170V150H145V142Z" fill="#F6F7F7"/>
<path d="M49.125 119.5H37.875C37.187 119.5 36.625 120.063 36.625 120.75V128.25C36.625 128.938 37.188 129.5 37.875 129.5H49.125C49.813 129.5 50.375 128.937 50.375 128.25V120.75C50.375 120.062 49.812 119.5 49.125 119.5ZM49.125 128.25H37.875V120.75H49.125V128.25Z" fill="#50575E"/>
<path d="M45.063 123.875L42.875 126.694L41.312 124.812L39.125 127.625H47.875L45.063 123.875Z" fill="#50575E"/>
<path d="M155.731 120.75L156.981 122H162.5V128.25H152.5V120.75H155.731ZM156.25 119.5H152.5C151.812 119.5 151.256 120.063 151.256 120.75L151.25 128.25C151.25 128.938 151.813 129.5 152.5 129.5H162.5C163.188 129.5 163.75 128.937 163.75 128.25V122C163.75 121.312 163.187 120.75 162.5 120.75H157.5L156.25 119.5Z" fill="#50575E"/>
<path d="M105.5 118.875H96.125C95.437 118.875 94.875 119.438 94.875 120.125V128.875C94.875 129.563 95.438 130.125 96.125 130.125H105.5C106.188 130.125 106.75 129.562 106.75 128.875V120.125C106.75 119.437 106.187 118.875 105.5 118.875ZM105.5 120.125V122H96.125V120.125H105.5ZM102.375 128.875H99.25V123.25H102.375V128.875ZM96.125 123.25H98V128.875H96.125V123.25ZM103.625 128.875V123.25H105.5V128.875H103.625Z" fill="#50575E"/>
<path d="M151.563 70.5001V72.3751H154.688V79.8751H156.563V72.3751H159.688V70.5001H151.563ZM163.438 73.6251H157.813V75.5001H159.688V79.8751H161.563V75.5001H163.438V73.6251Z" fill="#50575E"/>
<path d="M104.875 69.8751H96.125C95.437 69.8751 94.875 70.4381 94.875 71.1251V79.8751C94.875 80.5631 95.438 81.1251 96.125 81.1251H104.875C105.563 81.1251 106.125 80.5621 106.125 79.8751V71.1251C106.125 70.4371 105.562 69.8751 104.875 69.8751ZM104.875 79.8751H96.125V71.1251H104.875V79.8751ZM101.725 75.6811L100.006 77.8941L98.781 76.4191L97.062 78.6251H103.938L101.725 75.6811V75.6811Z" fill="#50575E"/>
</svg>

<svg width="200" height="165" fill="none" xmlns="http://www.w3.org/2000/svg"><mask id="a" maskUnits="userSpaceOnUse" x="94" y="0" width="14" height="14"><path d="M101 1.667A5.34 5.34 0 01106.333 7 5.34 5.34 0 01101 12.333 5.34 5.34 0 0195.667 7 5.34 5.34 0 01101 1.667zm0-1.334a6.668 6.668 0 10-.163 13.335A6.668 6.668 0 00101 .333zm3.333 6h-2.666V3.667h-1.334v2.666h-2.666v1.334h2.666v2.666h1.334V7.667h2.666V6.333z" fill="#fff"/></mask><g mask="url(#a)"><path fill-rule="evenodd" clip-rule="evenodd" d="M93-1h16v16H93V-1z" fill="#1D2327"/></g><path fill-rule="evenodd" clip-rule="evenodd" d="M101.027 19l-4.575 3.843H4.83c-1.016 0-1.99.339-2.708.942C1.403 24.388 1 25.206 1 26.059v134.725c0 .853.403 1.671 1.121 2.274S3.813 164 4.83 164H195.17c1.016 0 1.99-.339 2.708-.942.718-.603 1.121-1.421 1.121-2.274V26.059c0-.853-.403-1.671-1.121-2.274s-1.692-.942-2.708-.942h-89.57L101.028 19h-.001z" fill="#fff" stroke="#C3C4C7"/><path d="M185.605 32H16.395C13.968 32 12 33.791 12 36v9c0 2.21 1.968 4 4.395 4h169.21c2.427 0 4.395-1.79 4.395-4v-9c0-2.209-1.968-4-4.395-4z" stroke="#1689db" stroke-width="2"/><path fill-rule="evenodd" clip-rule="evenodd" d="M12 57h179v1H12v-1z" fill="#C3C4C7"/><path fill-rule="evenodd" clip-rule="evenodd" d="M17 37h45v8H17v-8zm14 56h25v8H31v-8zm56 0h25v8H87v-8zm58 0h25v8h-25v-8z" fill="#F6F7F7"/><path d="M45.125 76.75v4.375h-1.25V76.75h-.625v-.014a3.437 3.437 0 110-6.847v-.014h5.625v1.25h-1.25v10h-1.25v-10h-1.25v5.625z" fill="#50575E"/><path fill-rule="evenodd" clip-rule="evenodd" d="M31 142h25v8H31v-8zm56 0h25v8H87v-8zm58 0h25v8h-25v-8z" fill="#F6F7F7"/><path d="M49.125 119.5h-11.25c-.688 0-1.25.563-1.25 1.25v7.5c0 .688.563 1.25 1.25 1.25h11.25c.688 0 1.25-.563 1.25-1.25v-7.5c0-.688-.563-1.25-1.25-1.25zm0 8.75h-11.25v-7.5h11.25v7.5z" fill="#50575E"/><path d="M45.063 123.875l-2.188 2.819-1.563-1.882-2.187 2.813h8.75l-2.812-3.75zM155.731 120.75l1.25 1.25h5.519v6.25h-10v-7.5h3.231zm.519-1.25h-3.75c-.688 0-1.244.563-1.244 1.25l-.006 7.5c0 .688.563 1.25 1.25 1.25h10c.688 0 1.25-.563 1.25-1.25V122c0-.688-.563-1.25-1.25-1.25h-5l-1.25-1.25zM105.5 118.875h-9.375c-.688 0-1.25.563-1.25 1.25v8.75c0 .688.563 1.25 1.25 1.25h9.375c.688 0 1.25-.563 1.25-1.25v-8.75c0-.688-.563-1.25-1.25-1.25zm0 1.25V122h-9.375v-1.875h9.375zm-3.125 8.75H99.25v-5.625h3.125v5.625zm-6.25-5.625H98v5.625h-1.875v-5.625zm7.5 5.625v-5.625h1.875v5.625h-1.875zM151.563 70.5v1.875h3.125v7.5h1.875v-7.5h3.125V70.5h-8.125zm11.875 3.125h-5.625V75.5h1.875v4.375h1.875V75.5h1.875v-1.875zM104.875 69.875h-8.75c-.688 0-1.25.563-1.25 1.25v8.75c0 .688.563 1.25 1.25 1.25h8.75c.688 0 1.25-.563 1.25-1.25v-8.75c0-.688-.563-1.25-1.25-1.25zm0 10h-8.75v-8.75h8.75v8.75zm-3.15-4.194l-1.719 2.213-1.225-1.475-1.719 2.206h6.876l-2.213-2.944z" fill="#50575E"/></svg>
